app/style/icons/pool-fees.svg

<svg viewBox="0 0 400.12 400.54" xmlns="http://www.w3.org/2000/svg"><path d="m132.34 226.68-118.4 46.56a199.37 199.37 0 0 0 106.26 110.17l50.8-116.64a72.55 72.55 0 0 1 -38.66-40.09z" fill="#8795a2"/><path d="m132.34 226.68a72.55 72.55 0 0 1 1-55.69l-116.64-50.8a199.37 199.37 0 0 0 -2.77 153z" fill="#18173f"/><path d="m173.44 132.32-46.56-118.4a199.37 199.37 0 0 0 -110.18 106.27l116.65 50.81a72.55 72.55 0 0 1 40.09-38.68z" fill="#8795a2"/><path d="m126.88 13.92 46.55 118.4a72.55 72.55 0 0 1 55.69 1l50.8-116.64a199.37 199.37 0 0 0 -153.04-2.76z" fill="#18173f"/><path d="m267.79 173.42a72.55 72.55 0 0 1 -1 55.69l116.64 50.8a199.37 199.37 0 0 0 2.77-153z" fill="#18173f"/><path d="m267.79 173.42 118.4-46.55a199.37 199.37 0 0 0 -106.26-110.18l-50.8 116.64a72.55 72.55 0 0 1 38.66 40.09z" fill="#8795a2"/><path d="m266.79 229.11a72.55 72.55 0 0 1 -40.09 38.67l46.55 118.4a199.37 199.37 0 0 0 110.18-106.27z" fill="#8795a2"/><path d="m226.7 267.78a72.55 72.55 0 0 1 -55.69-1l-50.81 116.63a199.37 199.37 0 0 0 153 2.77z" fill="#18173f"/><path d="m112.49 400.54a112.48 112.48 0 0 0 112.51-112.49 113.38 113.38 0 0 0 -1.19-16.37l1.35-.47-1.35.46a112.49 112.49 0 1 0 -111.3 128.87z" fill="#8795a2"/><path d="m27.35 259.33c0-27.71 15.35-43.91 35.81-43.91s35.84 16.2 35.84 43.91-15.35 44.33-35.81 44.33-35.84-16.66-35.84-44.33zm46.46 0c0-18.76-5.12-23.87-10.66-23.87s-10.65 5.12-10.65 23.87 5.12 24.3 10.66 24.3 10.66-5.54 10.66-24.3zm-5.54 99.75 74.17-143.65h20.46l-74.16 143.65zm63.51-44.33c0-27.71 15.35-43.91 35.81-43.91s35.81 16.2 35.81 43.91-15.35 44.33-35.81 44.33-35.8-16.63-35.8-44.33zm46.46 0c0-18.76-5.12-23.87-10.66-23.87s-10.66 5.12-10.66 23.87 5.14 24.25 10.68 24.25 10.65-5.5 10.65-24.25z" fill="#18173f"/><path d="m.07.05h400v400h-400z" fill="none"/></svg>

<svg xmlns="http://www.w3.org/2000/svg" viewBox="0 0 400.12 400.54"><defs><style>.cls-1{fill:#8795a2;}.cls-2{fill:#18173f;}.cls-3{fill:none;}</style></defs><title>pool-fees</title><g id="Layer_2" data-name="Layer 2"><g id="design"><path class="cls-1" d="M132.34,226.68,13.94,273.24A199.37,199.37,0,0,0,120.2,383.41L171,266.77A72.55,72.55,0,0,1,132.34,226.68Z"/><path class="cls-2" d="M132.34,226.68a72.55,72.55,0,0,1,1-55.69L16.7,120.19a199.37,199.37,0,0,0-2.77,153Z"/><path class="cls-1" d="M173.44,132.32,126.88,13.92A199.37,199.37,0,0,0,16.7,120.19L133.35,171A72.55,72.55,0,0,1,173.44,132.32Z"/><path class="cls-2" d="M126.88,13.92l46.55,118.4a72.55,72.55,0,0,1,55.69,1l50.8-116.64A199.37,199.37,0,0,0,126.88,13.92Z"/><path class="cls-2" d="M267.79,173.42a72.55,72.55,0,0,1-1,55.69l116.64,50.8a199.37,199.37,0,0,0,2.77-153Z"/><path class="cls-1" d="M267.79,173.42l118.4-46.55A199.37,199.37,0,0,0,279.93,16.69l-50.8,116.64A72.55,72.55,0,0,1,267.79,173.42Z"/><path class="cls-1" d="M266.79,229.11a72.55,72.55,0,0,1-40.09,38.67l46.55,118.4A199.37,199.37,0,0,0,383.43,279.91Z"/><path class="cls-2" d="M226.7,267.78a72.55,72.55,0,0,1-55.69-1L120.2,383.41a199.37,199.37,0,0,0,153,2.77Z"/><path id="_Compound_Path_" data-name="&lt;Compound Path&gt;" class="cls-1" d="M112.49,400.54A112.48,112.48,0,0,0,225,288.05a113.38,113.38,0,0,0-1.19-16.37l1.35-.47-1.35.46a112.49,112.49,0,1,0-111.3,128.87Z"/><path class="cls-2" d="M27.35,259.33c0-27.71,15.35-43.91,35.81-43.91S99,231.62,99,259.33s-15.35,44.33-35.81,44.33S27.35,287,27.35,259.33Zm46.46,0c0-18.76-5.12-23.87-10.66-23.87S52.5,240.58,52.5,259.33s5.12,24.3,10.66,24.3S73.82,278.09,73.82,259.33Zm-5.54,99.75,74.17-143.65h20.46L88.74,359.08Zm63.51-44.33c0-27.71,15.35-43.91,35.81-43.91s35.81,16.2,35.81,43.91-15.35,44.33-35.81,44.33S131.79,342.45,131.79,314.75Zm46.46,0c0-18.76-5.12-23.87-10.66-23.87s-10.66,5.12-10.66,23.87S162.06,339,167.6,339,178.25,333.5,178.25,314.75Z"/><rect class="cls-3" x="0.07" y="0.05" width="400" height="400"/></g></g></svg>
